img/organize/2.svg

<svg width="38" height="58" viewBox="0 0 38 58" fill="none" xmlns="http://www.w3.org/2000/svg">
<path d="M2.00049 37.0691C3.18298 36.0102 4.69486 35.392 6.28052 35.3191C9.28052 35.3191 16.2805 40.1392 16.2805 40.1392V16.7791C16.2805 16.7791 16.5405 13.3691 18.8305 13.3691C21.5605 13.3691 21.6105 16.8591 21.6105 16.8591V30.1591C22.4197 29.2188 23.5495 28.6129 24.7805 28.4591C25.3148 28.4909 25.8346 28.6454 26.2994 28.9108C26.7642 29.1761 27.1615 29.5452 27.4605 29.9891C28.151 29.4389 29.0076 29.1393 29.8905 29.1392C30.8152 29.4438 31.6338 30.0058 32.2505 30.7592C33.0667 30.4037 33.9504 30.2297 34.8405 30.2491C35.3207 30.3591 35.7656 30.5879 36.1343 30.9147C36.503 31.2414 36.7836 31.6556 36.9505 32.1191C36.9505 32.1191 36.9505 44.3991 36.2205 48.5791C35.4105 54.3791 31.5205 56.0791 31.5205 56.0791H20.5205C20.5205 56.0791 16.1505 54.6291 14.5905 50.7891C11.5905 41.3291 2.00049 37.0691 2.00049 37.0691Z" stroke="#009245" stroke-width="2" stroke-miterlimit="10" stroke-linecap="round"/>
<path d="M11.7705 20.1C10.8796 18.7495 10.4034 17.1678 10.4005 15.5499C10.4005 13.2611 11.3097 11.0661 12.9282 9.44763C14.5466 7.82919 16.7417 6.91992 19.0305 6.91992C21.3193 6.91992 23.5144 7.82919 25.1328 9.44763C26.7513 11.0661 27.6605 13.2611 27.6605 15.5499C27.6625 17.1962 27.1715 18.8054 26.2505 20.1699" stroke="#009245" stroke-width="2" stroke-miterlimit="10" stroke-linecap="round"/>
<path d="M7.42047 22.4596C5.93384 20.2595 5.13979 17.6649 5.1405 15.0096C5.23764 11.389 6.74419 7.94926 9.33942 5.42273C11.9346 2.8962 15.4135 1.48242 19.0355 1.48242C22.6574 1.48242 26.1363 2.8962 28.7316 5.42273C31.3268 7.94926 32.8333 11.389 32.9305 15.0096C32.9325 17.6666 32.1346 20.2625 30.6405 22.4596" stroke="#009245" stroke-width="2" stroke-miterlimit="10" stroke-linecap="round"/>
</svg>

<svg width="38" height="58" fill="none" xmlns="http://www.w3.org/2000/svg"><path d="M2 37.07a6.89 6.89 0 014.28-1.75c3 0 10 4.82 10 4.82V16.78s.26-3.41 2.55-3.41c2.73 0 2.78 3.49 2.78 3.49v13.3a5 5 0 013.17-1.7 3.48 3.48 0 012.68 1.53 3.9 3.9 0 012.43-.85 5.12 5.12 0 012.36 1.62 6.15 6.15 0 012.59-.51 2.94 2.94 0 012.11 1.87s0 12.28-.73 16.46c-.81 5.8-4.7 7.5-4.7 7.5h-11s-4.37-1.45-5.93-5.29C11.59 41.33 2 37.07 2 37.07z" stroke="#009245" stroke-width="2" stroke-miterlimit="10" stroke-linecap="round"/><path d="M11.77 20.1a8.29 8.29 0 01-1.37-4.55 8.63 8.63 0 1117.26 0 8.24 8.24 0 01-1.41 4.62" stroke="#009245" stroke-width="2" stroke-miterlimit="10" stroke-linecap="round"/><path d="M7.42 22.46a13.3 13.3 0 01-2.28-7.45 13.9 13.9 0 0127.79 0 13.23 13.23 0 01-2.29 7.45" stroke="#009245" stroke-width="2" stroke-miterlimit="10" stroke-linecap="round"/></svg>
